app/assets/integrations/walletconnect-banner.svg

<?xml version="1.0" encoding="UTF-8"?>
<svg width="1459px" height="238px" viewBox="0 0 1459 238" version="1.1" xmlns="http://www.w3.org/2000/svg" xmlns:xlink="http://www.w3.org/1999/xlink">
    <!-- Generator: Sketch 49.3 (51167) - http://www.bohemiancoding.com/sketch -->
    <title>walletconnect-banner-2</title>
    <desc>Created with Sketch.</desc>
    <defs/>
    <g id="Page-1" stroke="none" stroke-width="1" fill="none" fill-rule="evenodd">
        <g id="walletconnect-banner-2">
            <path d="M526.766839,130.223822 L506.743339,202.279192 L485.915975,202.279192 L458,96.8269617 L480.873561,96.8269617 L497.462373,173.193962 L498.047001,173.193962 L517.778188,96.8269617 L536.413197,96.8269617 L556.144384,173.193962 L556.729011,173.193962 L573.390902,96.8269617 L596.264463,96.8269617 L568.27541,202.279192 L547.448046,202.279192 L527.424545,130.223822 L526.766839,130.223822 Z M626.665106,188.101969 C635.946072,188.101969 643.619311,182.036456 643.619311,173.559354 L643.619311,167.859233 L627.103577,168.882332 C619.138024,169.46696 614.607159,173.047805 614.607159,178.601768 C614.607159,184.448046 619.430338,188.101969 626.665106,188.101969 Z M619.649573,203.521526 C604.741566,203.521526 593.414403,193.875168 593.414403,179.771024 C593.414403,165.520722 604.376173,157.262855 623.888124,156.0936 L643.619311,154.924344 L643.619311,149.735773 C643.619311,142.427926 638.503818,138.189375 630.465187,138.189375 C622.499633,138.189375 617.457219,142.135612 616.434121,147.908811 L596.922169,147.908811 C597.726033,132.70849 610.660922,122.258269 631.415207,122.258269 C651.511786,122.258269 664.592832,132.635411 664.592832,148.420361 L664.592832,202.279192 L643.984703,202.279192 L643.984703,190.294323 L643.546233,190.294323 C639.161524,198.625269 629.442088,203.521526 619.649573,203.521526 Z M678.843133,202.279192 L678.843133,96.8269617 L700.182046,96.8269617 L700.182046,202.279192 L678.843133,202.279192 Z M715.090054,202.279192 L715.090054,96.8269617 L736.428966,96.8269617 L736.428966,202.279192 L715.090054,202.279192 Z M785.976168,138.043218 C776.622124,138.043218 769.898905,145.13183 769.168121,154.924344 L802.418824,154.924344 C801.980353,144.912594 795.476369,138.043218 785.976168,138.043218 Z M802.711138,178.309455 L822.296167,178.309455 C819.957656,193.655933 805.92659,203.959997 786.560796,203.959997 C762.444901,203.959997 747.975365,188.54044 747.975365,163.474525 C747.975365,138.481689 762.591058,122.258269 785.756933,122.258269 C808.557415,122.258269 822.953874,137.677826 822.953874,161.501407 L822.953874,168.00539 L768.948885,168.00539 L768.948885,169.320803 C768.948885,180.501809 776.037497,188.175048 786.926188,188.175048 C794.745585,188.175048 800.738019,184.301889 802.711138,178.309455 Z M839.615765,105.888692 L860.954677,105.888692 L860.954677,123.939074 L875.424214,123.939074 L875.424214,140.016337 L860.954677,140.016337 L860.954677,177.505591 C860.954677,183.498026 863.877816,186.348086 870.162565,186.348086 C872.062605,186.348086 874.035723,186.201929 875.351136,185.982694 L875.351136,201.694565 C873.158782,202.206114 869.504858,202.571506 865.193229,202.571506 C846.777455,202.571506 839.615765,196.432915 839.615765,181.159515 L839.615765,140.016337 L828.580916,140.016337 L828.580916,123.939074 L839.615765,123.939074 L839.615765,105.888692 Z M935.567794,204.106154 C904.874837,204.106154 885.6552,183.571104 885.6552,149.516538 C885.6552,115.53505 905.020994,95 935.567794,95 C960.926023,95 980.218739,111.077263 981.899543,134.681609 L960.414474,134.681609 C958.368277,121.74672 948.429605,113.269617 935.567794,113.269617 C918.905903,113.269617 908.163368,127.227605 908.163368,149.443459 C908.163368,171.951628 918.759746,185.836537 935.640873,185.836537 C948.721919,185.836537 958.149041,178.163298 960.487552,165.666879 L981.972622,165.666879 C979.487954,189.198146 961.437572,204.106154 935.567794,204.106154 Z M1029.69286,203.959997 C1006.01544,203.959997 990.888195,188.759676 990.888195,163.036055 C990.888195,137.677826 1006.23467,122.258269 1029.69286,122.258269 C1053.15105,122.258269 1068.49753,137.604747 1068.49753,163.036055 C1068.49753,188.832754 1053.37029,203.959997 1029.69286,203.959997 Z M1029.69286,187.663499 C1040.14308,187.663499 1046.79322,178.821004 1046.79322,163.109133 C1046.79322,147.543419 1040.07,138.554767 1029.69286,138.554767 C1019.31572,138.554767 1012.51942,147.543419 1012.51942,163.109133 C1012.51942,178.821004 1019.16956,187.663499 1029.69286,187.663499 Z M1079.4593,202.279192 L1079.4593,123.939074 L1100.06743,123.939074 L1100.06743,137.897061 L1100.5059,137.897061 C1104.67137,128.177625 1112.92924,122.477504 1124.98719,122.477504 C1142.37986,122.477504 1152.17238,133.439275 1152.17238,151.78197 L1152.17238,202.279192 L1130.83346,202.279192 L1130.83346,156.239757 C1130.83346,146.008771 1126.01028,140.162494 1116.437,140.162494 C1106.86373,140.162494 1100.79821,147.178027 1100.79821,157.335934 L1100.79821,202.279192 L1079.4593,202.279192 Z M1165.69189,202.279192 L1165.69189,123.939074 L1186.30002,123.939074 L1186.30002,137.897061 L1186.73849,137.897061 C1190.90396,128.177625 1199.16183,122.477504 1211.21978,122.477504 C1228.61245,122.477504 1238.40497,133.439275 1238.40497,151.78197 L1238.40497,202.279192 L1217.06606,202.279192 L1217.06606,156.239757 C1217.06606,146.008771 1212.24288,140.162494 1202.6696,140.162494 C1193.09632,140.162494 1187.03081,147.178027 1187.03081,157.335934 L1187.03081,202.279192 L1165.69189,202.279192 Z M1287.07523,138.043218 C1277.72119,138.043218 1270.99797,145.13183 1270.26718,154.924344 L1303.51789,154.924344 C1303.07941,144.912594 1296.57543,138.043218 1287.07523,138.043218 Z M1303.8102,178.309455 L1323.39523,178.309455 C1321.05672,193.655933 1307.02565,203.959997 1287.65986,203.959997 C1263.54396,203.959997 1249.07443,188.54044 1249.07443,163.474525 C1249.07443,138.481689 1263.69012,122.258269 1286.85599,122.258269 C1309.65648,122.258269 1324.05293,137.677826 1324.05293,161.501407 L1324.05293,168.00539 L1270.04795,168.00539 L1270.04795,169.320803 C1270.04795,180.501809 1277.13656,188.175048 1288.02525,188.175048 C1295.84465,188.175048 1301.83708,184.301889 1303.8102,178.309455 Z M1406.19313,153.097383 L1386.38887,153.097383 C1385.14653,144.839516 1379.66565,138.993238 1370.89623,138.993238 C1360.37293,138.993238 1353.79587,147.908811 1353.79587,163.036055 C1353.79587,178.455611 1360.37293,187.225028 1370.96931,187.225028 C1379.51949,187.225028 1385.07346,182.109535 1386.38887,173.559354 L1406.26621,173.559354 C1405.17004,192.048207 1391.3582,203.959997 1370.75008,203.959997 C1347.14573,203.959997 1332.16464,188.613519 1332.16464,163.036055 C1332.16464,137.897061 1347.14573,122.258269 1370.60392,122.258269 C1391.79668,122.258269 1405.24311,135.339315 1406.19313,153.097383 Z M1422.2704,105.888692 L1443.60931,105.888692 L1443.60931,123.939074 L1458.07885,123.939074 L1458.07885,140.016337 L1443.60931,140.016337 L1443.60931,177.505591 C1443.60931,183.498026 1446.53245,186.348086 1452.8172,186.348086 C1454.71724,186.348086 1456.69036,186.201929 1458.00577,185.982694 L1458.00577,201.694565 C1455.81341,202.206114 1452.15949,202.571506 1447.84786,202.571506 C1429.43209,202.571506 1422.2704,196.432915 1422.2704,181.159515 L1422.2704,140.016337 L1411.23555,140.016337 L1411.23555,123.939074 L1422.2704,123.939074 L1422.2704,105.888692 Z" id="WalletConnect" fill="#3999FB"/>
            <path d="M79.4992542,46.5389641 C142.715504,-15.3550143 245.209294,-15.3550143 308.425541,46.5389641 L316.033719,53.9880033 C319.194531,57.0827021 319.194531,62.1002006 316.033719,65.1949006 L290.007661,90.6765804 C288.427255,92.2239311 285.86491,92.2239311 284.284504,90.6765804 L273.814748,80.4258162 C229.713513,37.2470301 158.211283,37.2470301 114.110047,80.4258162 L102.897805,91.4035389 C101.317397,92.9508883 98.755052,92.9508883 97.1746471,91.4035389 L71.1485898,65.9218591 C67.9877774,62.8271591 67.9877774,57.8096606 71.1485898,54.7149619 L79.4992542,46.5389641 Z M362.249885,99.2377722 L385.413126,121.916595 C388.573922,125.01128 388.573941,130.028748 385.413167,133.123453 L280.968512,235.385079 C277.807722,238.479801 272.683033,238.479836 269.522198,235.385159 C269.522185,235.385146 269.52217,235.385132 269.522157,235.385118 L195.393696,162.807065 C194.603493,162.03339 193.32232,162.03339 192.532117,162.807065 C192.532112,162.80707 192.532108,162.807076 192.532103,162.807079 L118.40522,235.385079 C115.24444,238.479809 110.119749,238.479861 106.958905,235.385192 C106.958887,235.385174 106.958867,235.385155 106.958847,235.385136 L2.51128675,133.12215 C-0.649524409,130.027451 -0.649524409,125.009953 2.51128675,121.915254 L25.6745697,99.2364692 C28.8353808,96.1417705 33.9600712,96.1417705 37.1208837,99.2364692 L111.250424,171.815537 C112.040627,172.589212 113.321798,172.589212 114.112002,171.815537 C114.112014,171.815525 114.112024,171.815514 114.112036,171.815505 L188.237861,99.2364692 C191.398601,96.1416993 196.523291,96.1415832 199.684176,99.2362107 C199.68422,99.2362542 199.684263,99.2362977 199.684307,99.2363413 L273.813749,171.815505 C274.603952,172.589179 275.885125,172.589179 276.675327,171.815505 L350.803571,99.2377722 C353.964384,96.1430722 359.089073,96.1430722 362.249885,99.2377722 Z" id="WalletConnect" fill="#3B99FC" fill-rule="nonzero"/>
        </g>
    </g>
</svg>

<svg width="1459" height="238" xmlns="http://www.w3.org/2000/svg"><g fill="none" fill-rule="evenodd"><path d="m526.767 130.224-20.024 72.055h-20.827L458 96.827h22.874l16.588 76.367h.585l19.731-76.367h18.635l19.731 76.367h.585l16.662-76.367h22.873l-27.989 105.452h-20.827l-20.023-72.055h-.658Zm99.898 57.878c9.281 0 16.954-6.066 16.954-14.543v-5.7l-16.515 1.023c-7.966.585-12.497 4.166-12.497 9.72 0 5.846 4.823 9.5 12.058 9.5Zm-7.015 15.42c-14.908 0-26.236-9.647-26.236-23.751 0-14.25 10.962-22.508 30.474-23.677l19.731-1.17v-5.188c0-7.308-5.115-11.547-13.154-11.547-7.965 0-13.008 3.947-14.03 9.72h-19.513c.804-15.2 13.739-25.65 34.493-25.65 20.097 0 33.178 10.376 33.178 26.161v53.86h-20.608v-11.986h-.439c-4.384 8.331-14.104 13.228-23.896 13.228Zm59.193-1.243V96.827h21.339v105.452h-21.339Zm36.247 0V96.827h21.339v105.452H715.09Zm70.886-64.236c-9.354 0-16.077 7.089-16.808 16.881h33.25c-.438-10.011-6.942-16.88-16.442-16.88Zm16.735 40.266h19.585c-2.338 15.347-16.37 25.651-35.735 25.651-24.116 0-38.586-15.42-38.586-40.485 0-24.993 14.616-41.217 37.782-41.217 22.8 0 37.197 15.42 37.197 39.243v6.504h-54.005v1.316c0 11.18 7.088 18.854 17.977 18.854 7.82 0 13.812-3.873 15.785-9.866Zm36.905-72.42h21.339v18.05h14.47v16.077h-14.47v37.49c0 5.992 2.923 8.842 9.208 8.842 1.9 0 3.873-.146 5.188-.365v15.712c-2.192.511-5.846.877-10.158.877-18.416 0-25.577-6.14-25.577-21.412v-41.144H828.58V123.94h11.035v-18.05Zm95.952 98.217c-30.693 0-49.913-20.535-49.913-54.59 0-33.98 19.366-54.516 49.913-54.516 25.358 0 44.65 16.077 46.332 39.682h-21.486c-2.046-12.935-11.984-21.412-24.846-21.412-16.662 0-27.405 13.958-27.405 36.173 0 22.509 10.597 36.394 27.478 36.394 13.08 0 22.508-7.674 24.847-20.17h21.485c-2.485 23.531-20.535 38.44-46.405 38.44Zm94.125-.146c-23.678 0-38.805-15.2-38.805-40.924 0-25.358 15.347-40.778 38.805-40.778s38.805 15.347 38.805 40.778c0 25.797-15.128 40.924-38.805 40.924Zm0-16.297c10.45 0 17.1-8.842 17.1-24.554 0-15.566-6.723-24.554-17.1-24.554-10.377 0-17.174 8.988-17.174 24.554 0 15.712 6.65 24.554 17.174 24.554Zm49.766 14.616v-78.34h20.608v13.958h.439c4.165-9.72 12.423-15.42 24.481-15.42 17.393 0 27.185 10.962 27.185 29.305v50.497h-21.339v-46.04c0-10.23-4.823-16.077-14.396-16.077s-15.639 7.016-15.639 17.174v44.943h-21.339Zm86.233 0v-78.34h20.608v13.958h.438c4.166-9.72 12.424-15.42 24.482-15.42 17.392 0 27.185 10.962 27.185 29.305v50.497h-21.339v-46.04c0-10.23-4.823-16.077-14.396-16.077-9.574 0-15.64 7.016-15.64 17.174v44.943h-21.338Zm121.383-64.236c-9.354 0-16.077 7.089-16.808 16.881h33.25c-.438-10.011-6.942-16.88-16.442-16.88Zm16.735 40.266h19.585c-2.338 15.347-16.37 25.651-35.735 25.651-24.116 0-38.586-15.42-38.586-40.485 0-24.993 14.616-41.217 37.782-41.217 22.8 0 37.197 15.42 37.197 39.243v6.504h-54.005v1.316c0 11.18 7.089 18.854 17.977 18.854 7.82 0 13.812-3.873 15.785-9.866Zm102.383-25.212h-19.804c-1.242-8.257-6.723-14.104-15.493-14.104-10.523 0-17.1 8.916-17.1 24.043 0 15.42 6.577 24.189 17.173 24.189 8.55 0 14.104-5.115 15.42-13.666h19.877c-1.096 18.49-14.908 30.401-35.516 30.401-23.604 0-38.585-15.346-38.585-40.924 0-25.139 14.98-40.778 38.439-40.778 21.193 0 34.64 13.081 35.59 30.84Zm16.077-47.208h21.34v18.05h14.469v16.077h-14.47v37.49c0 5.992 2.923 8.842 9.208 8.842 1.9 0 3.873-.146 5.189-.365v15.712c-2.193.511-5.847.877-10.158.877-18.416 0-25.578-6.14-25.578-21.412v-41.144h-11.034V123.94h11.034v-18.05Z" fill="#3999FB"/><path d="M79.5 46.539c63.216-61.894 165.71-61.894 228.926 0l7.608 7.449a7.808 7.808 0 0 1 0 11.207l-26.026 25.482a4.108 4.108 0 0 1-5.723 0l-10.47-10.251c-44.101-43.179-115.604-43.179-159.705 0l-11.212 10.978a4.108 4.108 0 0 1-5.723 0L71.149 65.922a7.808 7.808 0 0 1 0-11.207l8.35-8.176Zm282.75 52.699 23.163 22.679a7.808 7.808 0 0 1 0 11.206L280.97 235.385c-3.161 3.095-8.286 3.095-11.447 0l-74.128-72.578a2.054 2.054 0 0 0-2.862 0l-74.127 72.578c-3.16 3.095-8.285 3.095-11.446 0L2.51 133.122a7.808 7.808 0 0 1 0-11.207l23.164-22.679c3.16-3.094 8.285-3.094 11.446 0l74.13 72.58c.79.773 2.07.773 2.861 0l74.126-72.58c3.16-3.094 8.285-3.094 11.446 0l74.13 72.58c.79.773 2.071.773 2.861 0l74.129-72.578c3.16-3.095 8.285-3.095 11.446 0Z" fill="#3B99FC" fill-rule="nonzero"/></g></svg>
